www/assets/icons/pie_chart_outline.svg

<svg xmlns="http://www.w3.org/2000/svg" width="24" height="24" viewBox="0 0 24 24" fill='currentColor'><path d="M12 2C6.5 2 2 6.5 2 12s4.5 10 10 10 10-4.5 10-10S17.5 2 12 2m1 2.07c3.61.45 6.48 3.33 6.93 6.93H13zM4 12c0-4.06 3.07-7.44 7-7.93v15.87c-3.93-.5-7-3.88-7-7.94m9 7.93V13h6.93A8 8 0 0 1 13 19.93"/></svg>

<svg width="24" height="24" viewBox="0 0 24 24" xmlns="http://www.w3.org/2000/svg" fill='currentColor'><path d="M12 2C6.5 2 2 6.5 2 12C2 17.5 6.5 22 12 22C17.5 22 22 17.5 22 12C22 6.5 17.5 2 12 2ZM13 4.07C16.61 4.52 19.48 7.4 19.93 11H13V4.07ZM4 12C4 7.94 7.07 4.56 11 4.07V19.94C7.07 19.44 4 16.06 4 12ZM13 19.93V13H19.93C19.48 16.61 16.61 19.48 13 19.93Z"/></svg>
